!!!COM: Music21
!!!OTL: reel_Miss-Gunnings
!!!OMV: reel_Miss-Gunnings
**kern
*clefG2
*k[f#]
*e:
*M4/4
=1
8f#
=
4g
8bL
8gJ
8eL
8f#J
8gL
8eJ
=
12f#L
12e
12dJ
8f#L
8aJ
8ddL
8aJ
8f#L
8dJ
=
4g
8bL
8gJ
8eL
8f#J
8gL
8bJ
=
12aL
12b
12ccJ
8bL
8aJ
8gL
8eJ
8eL
8f#J
=
4g
8bL
8gJ
8eL
8f#J
8gL
8eJ
!!linebreak:original
=
12f#L
12e
12dJ
8f#L
8aJ
8ddL
8aJ
8f#L
8dJ
=
8gL
8eJ
8bL
8eJ
8eeL
8ff#J
8ggL
8aaJ
=
8bb
8ggL
8aaJ
8ff#
8gg
8eeL
8eeJ
8ryy
=||
*M4/4
8f#
=
4g
8bL
8gJ
8eL
8f#J
8gL
8eJ
!!linebreak:original
=
12f#L
12e
12dJ
8f#L
8aJ
8ddL
8aJ
8f#L
8dJ
=
4g
8bL
8gJ
8eL
8f#J
8gL
8bJ
=
12aL
12b
12ccJ
8bL
8aJ
8gL
8eJ
8eL
8f#J
=
4g
8bL
8gJ
8eL
8f#J
8gL
8eJ
=
12f#L
12e
12dJ
8f#L
8aJ
8ddL
8aJ
8f#L
8dJ
!!linebreak:original
=
8gL
8eJ
8bL
8eJ
8eeL
8ff#J
8ggL
8aaJ
=
8bb
8ggL
8aaJ
8ff#
8gg
8eeL
8eeJ
8ryy
=||
8ff#
2..ryy
=
12ggL
12ff#
12eeJ
8bbL
8ff#J
4gg
8ff#L
8eeJ
=
8ddL
8ff#J
8aaL
8ff#J
8ddL
8aJ
8f#L
8ddJ
=
8eeL
8ggJ
8bbL
8ggJ
8eeL
8ddJ
8eeL
8bJ
!!linebreak:original
=
12aL
12b
12ccJ
8bL
8aJ
8gL
8eJ
8eL
8ff#J
=
12ggL
12ff#
12eeJ
8bbL
8ff#J
4gg
8ff#L
8eeJ
=
8ddL
8ff#J
8aaL
8ff#J
8ddL
8aJ
8f#L
8dJ
=
12gL
12f#
12eJ
8bL
8eJ
8ccL
8eJ
8bL
8eJ
=
12aL
12bJ
12cc
8b
8a
8g
8eL
8eJ
8ryy
!!linebreak:original
=||
8ff#
2..ryy
=
12ggL
12ff#
12eeJ
8bbL
8ff#J
4gg
8ff#L
8eeJ
=
8ddL
8ff#J
8aaL
8ff#J
8ddL
8aJ
8f#L
8ddJ
=
8eeL
8ggJ
8bbL
8ggJ
8eeL
8ddJ
8eeL
8bJ
=
12aL
12b
12ccJ
8bL
8aJ
8gL
8eJ
8eL
8ff#J
!!linebreak:original
=
12ggL
12ff#
12eeJ
8bbL
8ff#J
4gg
8ff#L
8eeJ
=
8ddL
8ff#J
8aaL
8ff#J
8ddL
8aJ
8f#L
8dJ
=
12gL
12f#
12eJ
8bL
8eJ
8ccL
8eJ
8bL
8eJ
=
12aL
12bJ
12cc
8b
8a
8g
8eL
8eJ
8ryy
=||
*-
